icons/preferences-color.svg

<svg xmlns="http://www.w3.org/2000/svg" width="384pt" height="384pt" version="1.1" viewBox="0 0 384 384"> <g transform="rotate(89.999367,57.780548,327.15295)"> <rect style="fill:rgb(23.137%,54.509%,72.156%)" width="67.652" height="67.652" x="23.3" y="223.81" rx="0" ry="0"/> <rect style="fill:rgb(26.274%,61.568%,81.176%)" width="67.652" height="67.652" x="23.3" y="156.15" rx="0" ry="0"/> <rect style="fill:rgb(36.078%,71.372%,90.980%)" width="67.652" height="67.652" x="23.3" y="88.5" rx="0" ry="0"/> <rect style="fill:rgb(50.196%,77.647%,92.941%)" width="67.652" height="67.652" x="23.3" y="20.85" rx="0" ry="0"/> </g> <g transform="rotate(58.691865,54.031497,325.32941)"> <rect style="fill:rgb(49.411%,23.529%,60.392%)" width="67.652" height="67.652" x="23.3" y="223.81" rx="0" ry="0"/> <rect style="fill:rgb(59.215%,33.333%,70.196%)" width="67.652" height="67.652" x="23.3" y="156.15" rx="0" ry="0"/> <rect style="fill:rgb(63.921%,40.784%,73.725%)" width="67.652" height="67.652" x="23.3" y="88.5" rx="0" ry="0"/> <rect style="fill:rgb(68.235%,47.843%,76.862%)" width="67.652" height="67.652" x="23.3" y="20.85" rx="0" ry="0"/> </g> <path style="fill:rgb(20.392%,47.843%,63.137%);fill-rule:evenodd" d="M 93.335938,292.91016 H 53.339844 v 0.30078 c -16.359375,2.08203 -28.9375,15.95312 -28.9375,32.89843 v 1.26172 c 0,16.94532 12.578125,30.8125 28.9375,32.89453 v 0.30079 h 39.996094 z m 0,0"/> <path style="fill:rgb(54.901%,25.882%,67.058%);fill-rule:evenodd" d="m 69.976562,279.62891 -29.542968,17.77734 -1.082032,0.65234 -3.648437,2.19141 0.15625,0.25781 c -12.945313,10.21875 -16.570313,28.58594 -7.835937,43.10547 l 0.652343,1.08594 c 8.734375,14.51562 26.660157,19.91406 41.75,13.26172 l 0.15625,0.25781 3.648438,-2.19141 1.082031,-0.65234 29.54297,-17.77734 z m 0,0"/> <g transform="rotate(29.99135,3.8788487,645.67897)"> <rect style="fill:rgb(74.901%,9.019%,9.019%)" width="67.652" height="67.652" x="-142.2" y="242.06" rx="0" ry="0"/> <rect style="fill:rgb(83.137%,9.803%,9.803%)" width="67.652" height="67.652" x="-142.2" y="174.41" rx="0" ry="0"/> <rect style="fill:rgb(84.705%,18.823%,18.823%)" width="67.652" height="67.652" x="-142.2" y="106.76" rx="0" ry="0"/> <rect style="fill:rgb(88.235%,36.862%,36.862%)" width="67.652" height="67.652" x="-142.2" y="39.1" rx="0" ry="0"/> </g> <path style="fill:rgb(58.431%,7.058%,7.058%);fill-rule:evenodd" d="m 46.972656,278.78125 -17.300781,29.82031 -0.636719,1.09375 -2.136718,3.67969 0.261718,0.15234 C 20.75,328.72266 26.433594,346.5625 41.089844,355.06641 l 1.09375,0.63281 c 14.65625,8.5039 32.960937,4.58594 42.972656,-8.51953 l 0.257812,0.15234 2.136719,-3.68359 0.636719,-1.09375 17.30078,-29.82032 z m 0,0"/> <path style="fill:rgb(100.000%,78.039%,18.823%);fill-rule:evenodd" d="m 23.304688,291.45703 v 39.99609 h 0.300781 c 2.078125,16.35938 15.949219,28.9375 32.894531,28.9375 h 1.265625 c 16.941406,0 30.808594,-12.57812 32.890625,-28.9375 h 0.300781 v -39.99609 z m 0,0"/> <path style="fill:rgb(100.000%,100.000%,100.000%);fill-rule:evenodd" d="m 71.230469,331.05859 c -2.835938,7.78516 -11.441407,11.79688 -19.226563,8.96875 -7.785156,-2.83203 -11.804687,-11.43359 -8.984375,-19.21875 2.824219,-7.78906 11.421875,-11.8164 19.210938,-9 7.792969,2.81641 11.824219,11.41407 9.015625,19.20313"/> <g> <rect style="fill:rgb(100.000%,78.039%,18.823%)" width="67.652" height="67.652" x="23.3" y="223.81" rx="0" ry="0"/> <rect style="fill:rgb(100.000%,80.000%,26.666%)" width="67.652" height="67.652" x="23.3" y="156.15" rx="0" ry="0"/> <rect style="fill:rgb(100.000%,82.352%,34.901%)" width="67.652" height="67.652" x="23.3" y="88.5" rx="0" ry="0"/> <rect style="fill:rgb(100.000%,84.705%,43.137%)" width="67.652" height="67.652" x="23.3" y="20.85" rx="0" ry="0"/> </g> </svg>

<svg xmlns="http://www.w3.org/2000/svg" xmlns:xlink="http://www.w3.org/1999/xlink" width="384pt" height="384pt" version="1.1" viewBox="0 0 384 384">
 <defs>
  <filter id="alpha" width="100%" height="100%" x="0%" y="0%" filterUnits="objectBoundingBox">
   <feColorMatrix in="SourceGraphic" type="matrix" values="0 0 0 0 1 0 0 0 0 1 0 0 0 0 1 0 0 0 1 0"/>
  </filter>
  <mask id="mask0">
   <g filter="url(#alpha)">
    <rect width="384" height="384" x="0" y="0" style="fill:rgb(0%,0%,0%);fill-opacity:0.2"/>
   </g>
  </mask>
  <clipPath id="clip1">
   <rect width="384" height="384" x="0" y="0"/>
  </clipPath>
  <g id="surface5" clip-path="url(#clip1)">
   <path style="fill-rule:evenodd;fill:rgb(24.313725%,80.392157%,96.470588%)" d="M 293.105469 292.921875 L 360.757812 292.921875 L 360.757812 360.574219 L 293.105469 360.574219 Z M 293.105469 292.921875"/>
  </g>
  <mask id="mask1">
   <g filter="url(#alpha)">
    <rect width="384" height="384" x="0" y="0" style="fill:rgb(0%,0%,0%);fill-opacity:0.4"/>
   </g>
  </mask>
  <clipPath id="clip2">
   <rect width="384" height="384" x="0" y="0"/>
  </clipPath>
  <g id="surface8" clip-path="url(#clip2)">
   <path style="fill-rule:evenodd;fill:rgb(24.313725%,80.392157%,96.470588%)" d="M 225.386719 292.921875 L 293.042969 292.921875 L 293.042969 360.574219 L 225.386719 360.574219 Z M 225.386719 292.921875"/>
  </g>
  <mask id="mask2">
   <g filter="url(#alpha)">
    <rect width="384" height="384" x="0" y="0" style="fill:rgb(0%,0%,0%);fill-opacity:0.6"/>
   </g>
  </mask>
  <clipPath id="clip3">
   <rect width="384" height="384" x="0" y="0"/>
  </clipPath>
  <g id="surface11" clip-path="url(#clip3)">
   <path style="fill-rule:evenodd;fill:rgb(24.313725%,80.392157%,96.470588%)" d="M 158.582031 292.921875 L 226.234375 292.921875 L 226.234375 360.574219 L 158.582031 360.574219 Z M 158.582031 292.921875"/>
  </g>
  <mask id="mask3">
   <g filter="url(#alpha)">
    <rect width="384" height="384" x="0" y="0" style="fill:rgb(0%,0%,0%);fill-opacity:0.8"/>
   </g>
  </mask>
  <clipPath id="clip4">
   <rect width="384" height="384" x="0" y="0"/>
  </clipPath>
  <g id="surface14" clip-path="url(#clip4)">
   <path style="fill-rule:evenodd;fill:rgb(24.313725%,80.392157%,96.470588%)" d="M 91.300781 292.921875 L 158.953125 292.921875 L 158.953125 360.574219 L 91.300781 360.574219 Z M 91.300781 292.921875"/>
  </g>
  <mask id="mask4">
   <g filter="url(#alpha)">
    <rect width="384" height="384" x="0" y="0" style="fill:rgb(0%,0%,0%);fill-opacity:0.2"/>
   </g>
  </mask>
  <clipPath id="clip5">
   <rect width="384" height="384" x="0" y="0"/>
  </clipPath>
  <g id="surface17" clip-path="url(#clip5)">
   <path style="fill-rule:evenodd;fill:rgb(55.686275%,26.666667%,67.843137%)" d="M 241.148438 176.640625 L 299.117188 141.761719 L 333.996094 199.726562 L 276.027344 234.605469 Z M 241.148438 176.640625"/>
  </g>
  <mask id="mask5">
   <g filter="url(#alpha)">
    <rect width="384" height="384" x="0" y="0" style="fill:rgb(0%,0%,0%);fill-opacity:0.4"/>
   </g>
  </mask>
  <clipPath id="clip6">
   <rect width="384" height="384" x="0" y="0"/>
  </clipPath>
  <g id="surface20" clip-path="url(#clip6)">
   <path style="fill-rule:evenodd;fill:rgb(55.686275%,26.666667%,67.843137%)" d="M 183.128906 211.550781 L 241.09375 176.671875 L 275.976562 234.640625 L 218.007812 269.519531 Z M 183.128906 211.550781"/>
  </g>
  <mask id="mask6">
   <g filter="url(#alpha)">
    <rect width="384" height="384" x="0" y="0" style="fill:rgb(0%,0%,0%);fill-opacity:0.2"/>
   </g>
  </mask>
  <clipPath id="clip7">
   <rect width="384" height="384" x="0" y="0"/>
  </clipPath>
  <g id="surface23" clip-path="url(#clip7)">
   <path style="fill-rule:evenodd;fill:rgb(100%,78.431373%,19.215686%)" d="M 23.308594 23.222656 L 90.960938 23.222656 L 90.960938 90.875 L 23.308594 90.875 Z M 23.308594 23.222656"/>
  </g>
  <mask id="mask7">
   <g filter="url(#alpha)">
    <rect width="384" height="384" x="0" y="0" style="fill:rgb(0%,0%,0%);fill-opacity:0.6"/>
   </g>
  </mask>
  <clipPath id="clip8">
   <rect width="384" height="384" x="0" y="0"/>
  </clipPath>
  <g id="surface26" clip-path="url(#clip8)">
   <path style="fill-rule:evenodd;fill:rgb(55.686275%,26.666667%,67.843137%)" d="M 125.882812 245.992188 L 183.851562 211.113281 L 218.730469 269.082031 L 160.761719 303.960938 Z M 125.882812 245.992188"/>
  </g>
  <mask id="mask8">
   <g filter="url(#alpha)">
    <rect width="384" height="384" x="0" y="0" style="fill:rgb(0%,0%,0%);fill-opacity:0.2"/>
   </g>
  </mask>
  <clipPath id="clip9">
   <rect width="384" height="384" x="0" y="0"/>
  </clipPath>
  <g id="surface29" clip-path="url(#clip9)">
   <path style="fill-rule:evenodd;fill:rgb(96.470588%,27.843137%,27.843137%)" d="M 147.230469 105.996094 L 181.183594 47.480469 L 239.699219 81.433594 L 205.746094 139.949219 Z M 147.230469 105.996094"/>
  </g>
  <mask id="mask9">
   <g filter="url(#alpha)">
    <rect width="384" height="384" x="0" y="0" style="fill:rgb(0%,0%,0%);fill-opacity:0.4"/>
   </g>
  </mask>
  <clipPath id="clip10">
   <rect width="384" height="384" x="0" y="0"/>
  </clipPath>
  <g id="surface32" clip-path="url(#clip10)">
   <path style="fill-rule:evenodd;fill:rgb(100%,78.431373%,19.215686%)" d="M 23.308594 90.679688 L 90.960938 90.679688 L 90.960938 158.332031 L 23.308594 158.332031 Z M 23.308594 90.679688"/>
  </g>
  <mask id="mask10">
   <g filter="url(#alpha)">
    <rect width="384" height="384" x="0" y="0" style="fill:rgb(0%,0%,0%);fill-opacity:0.4"/>
   </g>
  </mask>
  <clipPath id="clip11">
   <rect width="384" height="384" x="0" y="0"/>
  </clipPath>
  <g id="surface35" clip-path="url(#clip11)">
   <path style="fill-rule:evenodd;fill:rgb(96.470588%,27.843137%,27.843137%)" d="M 113.246094 164.566406 L 147.199219 106.050781 L 205.714844 140.003906 L 171.761719 198.519531 Z M 113.246094 164.566406"/>
  </g>
  <mask id="mask11">
   <g filter="url(#alpha)">
    <rect width="384" height="384" x="0" y="0" style="fill:rgb(0%,0%,0%);fill-opacity:0.8"/>
   </g>
  </mask>
  <clipPath id="clip12">
   <rect width="384" height="384" x="0" y="0"/>
  </clipPath>
  <g id="surface38" clip-path="url(#clip12)">
   <path style="fill-rule:evenodd;fill:rgb(55.686275%,26.666667%,67.843137%)" d="M 68.234375 280.679688 L 126.203125 245.800781 L 161.082031 303.769531 L 103.113281 338.648438 Z M 68.234375 280.679688"/>
  </g>
  <mask id="mask12">
   <g filter="url(#alpha)">
    <rect width="384" height="384" x="0" y="0" style="fill:rgb(0%,0%,0%);fill-opacity:0.6"/>
   </g>
  </mask>
  <clipPath id="clip13">
   <rect width="384" height="384" x="0" y="0"/>
  </clipPath>
  <g id="surface41" clip-path="url(#clip13)">
   <path style="fill-rule:evenodd;fill:rgb(96.470588%,27.843137%,27.843137%)" d="M 79.714844 222.351562 L 113.667969 163.835938 L 172.183594 197.789062 L 138.230469 256.304688 Z M 79.714844 222.351562"/>
  </g>
  <mask id="mask13">
   <g filter="url(#alpha)">
    <rect width="384" height="384" x="0" y="0" style="fill:rgb(0%,0%,0%);fill-opacity:0.8"/>
   </g>
  </mask>
  <clipPath id="clip14">
   <rect width="384" height="384" x="0" y="0"/>
  </clipPath>
  <g id="surface44" clip-path="url(#clip14)">
   <path style="fill-rule:evenodd;fill:rgb(96.470588%,27.843137%,27.843137%)" d="M 45.949219 280.542969 L 79.902344 222.027344 L 138.417969 255.984375 L 104.464844 314.496094 Z M 45.949219 280.542969"/>
  </g>
  <mask id="mask14">
   <g filter="url(#alpha)">
    <rect width="384" height="384" x="0" y="0" style="fill:rgb(0%,0%,0%);fill-opacity:0.6"/>
   </g>
  </mask>
  <clipPath id="clip15">
   <rect width="384" height="384" x="0" y="0"/>
  </clipPath>
  <g id="surface47" clip-path="url(#clip15)">
   <path style="fill-rule:evenodd;fill:rgb(100%,78.431373%,19.215686%)" d="M 23.308594 158.21875 L 90.960938 158.21875 L 90.960938 225.871094 L 23.308594 225.871094 Z M 23.308594 158.21875"/>
  </g>
  <mask id="mask15">
   <g filter="url(#alpha)">
    <rect width="384" height="384" x="0" y="0" style="fill:rgb(0%,0%,0%);fill-opacity:0.8"/>
   </g>
  </mask>
  <clipPath id="clip16">
   <rect width="384" height="384" x="0" y="0"/>
  </clipPath>
  <g id="surface50" clip-path="url(#clip16)">
   <path style="fill-rule:evenodd;fill:rgb(100%,78.431373%,19.215686%)" d="M 23.308594 225.304688 L 90.960938 225.304688 L 90.960938 292.957031 L 23.308594 292.957031 Z M 23.308594 225.304688"/>
  </g>
 </defs>
 <g>
  <use mask="url(#mask0)" xlink:href="#surface5"/>
  <use mask="url(#mask1)" xlink:href="#surface8"/>
  <use mask="url(#mask2)" xlink:href="#surface11"/>
  <use mask="url(#mask3)" xlink:href="#surface14"/>
  <use mask="url(#mask4)" xlink:href="#surface17"/>
  <path style="fill-rule:evenodd;fill:rgb(24.313725%,80.392157%,96.470588%)" d="M 93.335938 292.910156 L 53.339844 292.910156 L 53.339844 293.210938 C 36.980469 295.292969 24.402344 309.164062 24.402344 326.109375 L 24.402344 327.371094 C 24.402344 344.316406 36.980469 358.183594 53.339844 360.265625 L 53.339844 360.566406 L 93.335938 360.566406 Z M 93.335938 292.910156"/>
  <use mask="url(#mask5)" xlink:href="#surface20"/>
  <use mask="url(#mask6)" xlink:href="#surface23"/>
  <use mask="url(#mask7)" xlink:href="#surface26"/>
  <use mask="url(#mask8)" xlink:href="#surface29"/>
  <use mask="url(#mask9)" xlink:href="#surface32"/>
  <use mask="url(#mask10)" xlink:href="#surface35"/>
  <use mask="url(#mask11)" xlink:href="#surface38"/>
  <use mask="url(#mask12)" xlink:href="#surface41"/>
  <use mask="url(#mask13)" xlink:href="#surface44"/>
  <use mask="url(#mask14)" xlink:href="#surface47"/>
  <path style="fill-rule:evenodd;fill:rgb(55.686275%,26.666667%,67.843137%)" d="M 69.976562 279.628906 L 40.433594 297.40625 L 39.351562 298.058594 L 35.703125 300.25 L 35.859375 300.507812 C 22.914062 310.726562 19.289062 329.09375 28.023438 343.613281 L 28.675781 344.699219 C 37.410156 359.214844 55.335938 364.613281 70.425781 357.960938 L 70.582031 358.21875 L 74.230469 356.027344 L 75.3125 355.375 L 104.855469 337.597656 Z M 69.976562 279.628906"/>
  <path style="fill-rule:evenodd;fill:rgb(96.470588%,27.843137%,27.843137%)" d="M 46.972656 278.78125 L 29.671875 308.601562 L 29.035156 309.695312 L 26.898438 313.375 L 27.160156 313.527344 C 20.75 328.722656 26.433594 346.5625 41.089844 355.066406 L 42.183594 355.699219 C 56.839844 364.203125 75.144531 360.285156 85.15625 347.179688 L 85.414062 347.332031 L 87.550781 343.648438 L 88.1875 342.554688 L 105.488281 312.734375 Z M 46.972656 278.78125"/>
  <use mask="url(#mask15)" xlink:href="#surface50"/>
  <path style="fill-rule:evenodd;fill:rgb(100%,78.431373%,19.215686%)" d="M 23.304688 291.457031 L 23.304688 331.453125 L 23.605469 331.453125 C 25.683594 347.8125 39.554688 360.390625 56.5 360.390625 L 57.765625 360.390625 C 74.707031 360.390625 88.574219 347.8125 90.65625 331.453125 L 90.957031 331.453125 L 90.957031 291.457031 Z M 23.304688 291.457031"/>
  <path style="fill-rule:evenodd;fill:rgb(100%,100%,100%)" d="M 71.230469 331.058594 C 68.394531 338.84375 59.789062 342.855469 52.003906 340.027344 C 44.21875 337.195312 40.199219 328.59375 43.019531 320.808594 C 45.84375 313.019531 54.441406 308.992188 62.230469 311.808594 C 70.023438 314.625 74.054688 323.222656 71.246094 331.011719"/>
 </g>
</svg>
